48x48/apps/lovely-planet-arcade.svg

<svg xmlns="http://www.w3.org/2000/svg" height="48" width="48" version="1.1">
 <circle cx="24" cy="25" r="20" style="opacity:.2"/>
 <circle cx="24" cy="24" r="20" style="fill:#00acc4"/>
 <path d="m24 4a20 20 0 0 0 -20 20 20 20 0 0 0 0.0215 0.582 20 20 0 0 1 19.9785 -19.582 20 20 0 0 1 19.979 19.418 20 20 0 0 0 0.021 -0.418 20 20 0 0 0 -20 -20z" style="opacity:.2;fill:#f4f4f7"/>
 <path style="opacity:.2" d="m24 13a8 8 0 0 0 -8 8 8 8 0 0 0 8 8 8 8 0 0 0 8 -8 8 8 0 0 0 -8 -8zm0 16a13 13 0 0 0 -12.873047 11.306641 20 20 0 0 0 12.873047 4.693359 20 20 0 0 0 12.871094 -4.720703 13 13 0 0 0 -12.871094 -11.279297z"/>
 <path style="fill:#a9d5a0" d="m24 12a8 8 0 0 0 -8 8 8 8 0 0 0 8 8 8 8 0 0 0 8 -8 8 8 0 0 0 -8 -8zm0 16a13 13 0 0 0 -12.873047 11.306641 20 20 0 0 0 12.873047 4.693359 20 20 0 0 0 12.871094 -4.720703 13 13 0 0 0 -12.871094 -11.279297z"/>
 <rect style="fill:#f4f4f7" height="3" width="3" y="19" x="18"/>
 <rect style="fill:#f4f4f7" height="3" width="3" y="19" x="27"/>
 <path style="fill:#17191e" d="m17 18 2-2 3 2v1z"/>
 <path style="fill:#17191e" d="m31 18-2-2-3 2v1z"/>
 <path style="opacity:.2;fill:#f4f4f7" d="m24 12a8 8 0 0 0 -8 8 8 8 0 0 0 0.021484 0.423828 8 8 0 0 1 7.978516 -7.423828 8 8 0 0 1 7.978516 7.576172 8 8 0 0 0 0.021484 -0.576172 8 8 0 0 0 -8 -8zm3.089844 16.378906a8 8 0 0 1 -3.089844 0.621094 13 13 0 0 1 12.708984 10.402344 20 20 0 0 0 0.16211 -0.123047 13 13 0 0 0 -9.78125 -10.900391zm-3.089844 0.621094a8 8 0 0 1 -3.060547 -0.615234 13 13 0 0 0 -9.8125 10.921875 20 20 0 0 0 0.160156 0.121093 13 13 0 0 1 12.712891 -10.427734z"/>
 <path style="opacity:.2" d="m13 17h22l-11-8z"/>
 <path style="fill:#db6d7d" d="m13 16h22l-11-8z"/>
 <path style="opacity:.2;fill:#f4f4f7" d="m24 8l-11 8h1.375l9.625-7 9.625 7h1.375l-11-8z"/>
</svg>

<svg xmlns="http://www.w3.org/2000/svg" height="48" width="48"><circle cx="24" cy="25" r="20" style="opacity:.2"/><circle cx="24" cy="24" r="20" style="fill:#00acc4"/><path d="M24 4A20 20 0 0 0 4 24a20 20 0 0 0 .021.582A20 20 0 0 1 24 5a20 20 0 0 1 19.979 19.418A20 20 0 0 0 44 24 20 20 0 0 0 24 4z" style="opacity:.2;fill:#f4f4f7"/><path style="opacity:.2" d="M24 13a8 8 0 0 0-8 8 8 8 0 0 0 8 8 8 8 0 0 0 8-8 8 8 0 0 0-8-8zm0 16a13 13 0 0 0-12.873 11.307A20 20 0 0 0 24 45a20 20 0 0 0 12.871-4.72A13 13 0 0 0 24 29z"/><path style="fill:#a9d5a0" d="M24 12a8 8 0 0 0-8 8 8 8 0 0 0 8 8 8 8 0 0 0 8-8 8 8 0 0 0-8-8zm0 16a13 13 0 0 0-12.873 11.307A20 20 0 0 0 24 44a20 20 0 0 0 12.871-4.72A13 13 0 0 0 24 28z"/><path style="fill:#f4f4f7" d="M18 19h3v3h-3zM27 19h3v3h-3z"/><path style="fill:#17191e" d="m17 18 2-2 3 2v1zM31 18l-2-2-3 2v1z"/><path style="opacity:.2;fill:#f4f4f7" d="M24 12a8 8 0 0 0-8 8 8 8 0 0 0 .021.424A8 8 0 0 1 24 13a8 8 0 0 1 7.979 7.576A8 8 0 0 0 32 20a8 8 0 0 0-8-8zm3.09 16.379A8 8 0 0 1 24 29a13 13 0 0 1 12.709 10.402 20 20 0 0 0 .162-.123 13 13 0 0 0-9.781-10.9zM24 29a8 8 0 0 1-3.06-.615 13 13 0 0 0-9.813 10.922 20 20 0 0 0 .16.12A13 13 0 0 1 24 29z"/><path style="opacity:.2" d="M13 17h22L24 9z"/><path style="fill:#db6d7d" d="M13 16h22L24 8z"/><path style="opacity:.2;fill:#f4f4f7" d="m24 8-11 8h1.375L24 9l9.625 7H35L24 8z"/></svg>
